X:173
T:Lord Gordon (reel) 
B:CRE2.213 (Tiarna Gordon)
F:file ID: cre.2/173lord_g
M:C
R:reel % A-B-A
N:This is piper Seamus Ennis' version.
Q:180
K:D
dB|ADAD ADBD|AD (3DED AD (3FGA|BEE/D/E BEcE|\
BEE/D/E BAFA|
"5"dcdf ecdB|AFDF A2Bc|dBcA BGAF|EFGA BcdB|
"9"ADAF ADBD|ADD/E/D AG (3FGA|B2 (3FGA c2 (3FGA|\
d2 (3FGA BAFA|
"13"dgfd ecdF|A2FA A2Bc|dBcA BGAF|EFGA Bcd||
g|"17"fAdg (3fgf dg|fAdg faaf|g2ef ggge|dged BAFA|
"21"dcdf ecdB|AFF2 ABdg|(3fga ec dBAF|EFGA Bcdg|
"25"(3fgf dg aafd|Adfd faaf|g2ef ggga|b2ba bgeg|
"29"b2bc'd'3f|(3gfe dB ABdf|afec dBAF|EFGA BcdB||

%%%

